X:179
T:Grand March in the Seige of Vallaneens. JGi.179
M:C
L:1/8
Q:1/4=120
S:Joshua Gibbons MS,1823,Tealby,Lincs.
N:Title probably refers to Siege of Valenciennes in 1793
R:march
O:Tealby,Lincolnshire
Z:VMP/R.Greig, 2009
K:F
.c.c|f2.c.cA2.c.c|A2FFF2|”As in MS”a>b|c’2a>g bgaf|g2gag2.c.c|
f2.c.cA2.c.c|A2″As in MS”F2FFF2ab|c’aag fgag|.f2f>f.f2:|
|:d/e/|g2gg g2f/e/d/B/|bgaf g2 de|g2ga g2f/e/d/c/|bgafg2cc|
fcfe edcB|dAdc cBAG|.d.d.f.f.g.g.b.b|a4g2.c.c|
f2.c.cA2.c.c|A2FFF2ab|c’aaf fgag|f2f>ff2:|

